icon/icon_weather/overcast.svg

<?xml version="1.0" encoding="utf-8"?>
<!-- Generator: Adobe Illustrator 19.0.0, SVG Export Plug-In . SVG Version: 6.00 Build 0)  -->
<svg version="1.1" id="Layer_1" xmlns="http://www.w3.org/2000/svg" xmlns:xlink="http://www.w3.org/1999/xlink" x="0px" y="0px"
	 viewBox="0 0 512 512" style="enable-background:new 0 0 512 512;" xml:space="preserve">
<style type="text/css">
	.st0{fill:#F2F2F2;}
	.st1{fill:#F1F2F2;}
</style>
<g id="XMLID_18_">
	<g id="XMLID_46_">
		<g id="XMLID_49_">
			<path id="XMLID_52_" class="st0" d="M410.4,200.1c-10.4,0-20.7,1.8-30.5,5.4c-25.1-45.7-72.1-74-123.9-74
				c-51.7,0-98.8,28.2-123.9,74c-9.9-3.6-20.1-5.4-30.5-5.4c-49.8,0-90.3,40.5-90.3,90.3s40.5,90.3,90.3,90.3
				c11.8,0,23.4-2.3,34.2-6.8v-10c-10.7,5-22.3,7.7-34.2,7.7c-44.8,0-81.2-36.4-81.2-81.2s36.4-81.2,81.2-81.2
				c10.6,0,21,2.1,30.9,6.2l3.9,1.6l1.9-3.7c23-44.8,68.1-72.7,117.7-72.7s94.7,27.8,117.7,72.7l1.9,3.7l3.9-1.6
				c9.9-4.1,20.3-6.2,30.9-6.2c44.8,0,81.2,36.4,81.2,81.2s-36.4,81.2-81.2,81.2c-11.9,0-23.5-2.6-34.2-7.7v10
				c10.8,4.5,22.4,6.8,34.2,6.8c49.8,0,90.3-40.5,90.3-90.3S460.2,200.1,410.4,200.1z"/>
			<g id="XMLID_50_">
				<path id="XMLID_51_" class="st0" d="M410.4,194.6c-11,0.2-21.6,2-32,5.6c2.1,0.8,4.1,1.7,6.2,2.5c-26-46.5-75-76.7-128.6-76.7
					s-102.6,30.2-128.6,76.7c2.1-0.8,4.1-1.7,6.2-2.5C85.9,183.9,32.8,207,13.2,253.7C-5,297.2,12.4,348.9,53,372.9
					c25.6,15.1,56.8,17.2,84.3,6.3c2.3-0.9,4-2.7,4-5.3c0-3.3,0-6.7,0-10c0-4.5-4.6-6.4-8.2-4.7c-51.6,23.1-110.6-17.3-107-73.8
					c1.5-24.6,15.6-47.3,36.7-59.9c22.6-13.6,48.3-13,72.2-3.2c2.1,0.9,5.2-0.6,6.2-2.5C163.6,175.9,205.8,146,256,146
					s92.4,29.8,114.9,73.7c1,1.9,4.1,3.4,6.2,2.5c23.9-9.9,49.6-10.4,72.2,3.2c21.1,12.6,35.2,35.4,36.7,59.9
					c3.5,56.5-55.5,96.9-107,73.8c-3.7-1.6-8.2,0.2-8.2,4.7c0,3.3,0,6.7,0,10c0,2.6,1.7,4.4,4,5.3c43.6,17.2,94.2,0.3,118.2-40.1
					c22.4-37.9,15.4-87.8-16.5-118.1C458.5,204,435,194.9,410.4,194.6c-7-0.1-7.1,10.9,0,10.9c51.3,0.7,92.3,47.1,83.8,98.5
					c-8.9,54.1-66.3,84.3-116.5,64.6c1.3,1.8,2.7,3.5,4,5.3c0-3.3,0-6.7,0-10c-2.7,1.6-5.5,3.2-8.2,4.7c44.4,19.9,97.4,1,116.7-44.5
					c17.6-41.3-0.5-90.9-40.6-111.1c-24.1-12.2-50.8-11.6-75.5-1.4c2.1,0.8,4.1,1.7,6.2,2.5C356.1,166.9,309.9,135,256,135
					s-100.1,31.9-124.3,79.1c2.1-0.8,4.1-1.7,6.2-2.5C95,194,44.7,209.3,23.8,252.3c-19.7,40.5-4.5,90.6,34.4,113.2
					c24.8,14.4,54.4,14.8,80.3,3.2c-2.7-1.6-5.5-3.2-8.2-4.7c0,3.3,0,6.7,0,10c1.3-1.8,2.7-3.5,4-5.3c-54.8,21.6-116.7-17-117.6-77
					c-0.8-59.3,58.7-99.9,113.9-81c2.2,0.8,5.1-0.5,6.2-2.5C161,165,206.1,136.9,256,136.9s94.9,28,119.1,71.3
					c1.1,2,3.9,3.3,6.2,2.5c9.5-3.2,19-5,29.1-5.2C417.5,205.4,417.5,194.5,410.4,194.6z"/>
			</g>
		</g>
	</g>
</g>
<g id="XMLID_491_">
	<g id="XMLID_492_">
		<g id="XMLID_493_">
			<g id="XMLID_497_">
				<path id="XMLID_540_" class="st1" d="M256,383.6c-7.9,0-15.5-3.5-20.8-9.5c-2.9,1.8-6.1,2.8-9.5,2.8c-9.8,0-17.7-8-17.7-17.7
					c0-9.8,8-17.7,17.7-17.7c2,0,4.1,0.4,6,1.1c4.9-9,14.2-14.5,24.3-14.5c10.2,0,19.4,5.5,24.3,14.5c1.9-0.7,3.9-1.1,6-1.1
					c9.8,0,17.7,8,17.7,17.7c0,9.8-8,17.7-17.7,17.7c-3.4,0-6.6-1-9.5-2.8C271.5,380.1,263.9,383.6,256,383.6z M235.5,371.7l0.5,0.6
					c5,6,12.3,9.5,19.9,9.5s14.9-3.5,19.9-9.5l0.5-0.6l0.7,0.5c2.7,1.9,5.9,2.9,9.2,2.9c8.8,0,15.9-7.2,15.9-15.9
					s-7.2-15.9-15.9-15.9c-2.1,0-4.1,0.4-6.1,1.2l-0.8,0.3l-0.4-0.7c-4.5-8.8-13.4-14.3-23.1-14.3c-9.7,0-18.6,5.5-23.1,14.3
					l-0.4,0.7l-0.8-0.3c-1.9-0.8-4-1.2-6.1-1.2c-8.8,0-15.9,7.2-15.9,15.9s7.2,15.9,15.9,15.9c3.3,0,6.4-1,9.2-2.9L235.5,371.7z"/>
				<path id="XMLID_545_" class="st1" d="M256,385c-7.9,0-15.5-3.3-21.1-9.1c-2.8,1.6-6,2.4-9.2,2.4c-10.5,0-19.1-8.6-19.1-19.1
					s8.6-19.1,19.1-19.1c1.8,0,3.6,0.3,5.4,0.8c5.3-8.8,14.7-14.2,25-14.2c10.2,0,19.7,5.4,25,14.2c1.7-0.5,3.5-0.8,5.4-0.8
					c10.5,0,19.1,8.6,19.1,19.1s-8.6,19.1-19.1,19.1c-3.2,0-6.4-0.8-9.2-2.4C271.5,381.7,263.9,385,256,385z M235.8,369.8l1.3,1.6
					c4.7,5.7,11.6,9,18.9,9c7.3,0,14.1-3.3,18.9-9l1.3-1.6l1.7,1.2c2.5,1.7,5.4,2.7,8.4,2.7c8,0,14.6-6.5,14.6-14.6
					s-6.5-14.6-14.6-14.6c-1.9,0-3.8,0.4-5.5,1.1l-1.9,0.8l-1-1.9c-4.3-8.3-12.7-13.5-21.9-13.5c-9.2,0-17.6,5.2-21.9,13.5l-1,1.9
					l-1.9-0.8c-1.8-0.7-3.6-1.1-5.5-1.1c-8,0-14.6,6.5-14.6,14.6s6.5,14.6,14.6,14.6c3,0,5.9-0.9,8.4-2.7L235.8,369.8z"/>
			</g>
			<g id="XMLID_494_">
				<g id="XMLID_496_">
					<path id="XMLID_525_" class="st1" d="M256,382.5c-7.8-0.1-14.9-3.5-20-9.2c-0.3-0.3-0.9-0.4-1.3-0.2
						c-5.3,3.2-11.8,3.6-17.2,0.4c-4.7-2.7-7.9-7.6-8.3-13c-1.1-12.1,11-21,22.3-17.1c0.4,0.2,1-0.1,1.2-0.5
						c4.7-8.5,13.6-14,23.4-14c9.8,0,18.6,5.5,23.4,14c0.2,0.4,0.8,0.6,1.2,0.5c11.3-3.9,23.4,5,22.3,17.1c-0.5,5.4-3.7,10.3-8.3,13
						c-5.4,3.1-12,2.8-17.2-0.4c-0.4-0.2-1-0.2-1.3,0.2C270.9,379.1,263.8,382.4,256,382.5c-1.4,0-1.4,2.2,0,2.1
						c8.3-0.1,16-3.7,21.6-9.8c-0.4,0.1-0.9,0.1-1.3,0.2c8.9,5.5,20.9,2.8,26.2-6.3c5-8.5,2.4-19.6-5.6-25.1
						c-4.9-3.4-11.2-4.1-16.8-2.2c0.4,0.2,0.8,0.3,1.2,0.5c-5.1-9.1-14.7-15.1-25.2-15.1c-10.5,0-20.1,5.9-25.2,15.1
						c0.4-0.2,0.8-0.3,1.2-0.5c-9.7-3.3-20.5,1.7-24,11.4c-3.4,9.3,1.4,19.9,10.5,23.6c5.7,2.4,12.1,1.7,17.3-1.5
						c-0.4-0.1-0.9-0.1-1.3-0.2c5.5,6.2,13.3,9.8,21.6,9.8C257.4,384.7,257.4,382.5,256,382.5z"/>
					<path id="XMLID_526_" class="st1" d="M256,386.1C256,386.1,255.9,386.1,256,386.1c-8.1-0.1-15.5-3.3-21.3-8.9
						c-5.3,2.6-11.4,2.9-16.8,0.6c-9.8-4.1-14.8-15.5-11.3-25.4c3.5-9.7,13.9-15.2,23.9-12.8c5.6-8.7,15.2-14.1,25.4-14.1
						c10.2,0,19.8,5.4,25.4,14.1c5.6-1.4,11.5-0.3,16.2,2.9c8.8,6,11.4,17.9,6.1,26.9c-2.7,4.6-7.2,7.9-12.5,9.2
						c-4.7,1.2-9.7,0.6-13.9-1.5C271.6,382.8,264.1,386,256,386.1C256.1,386.1,256,386.1,256,386.1C256,386.1,256,386.1,256,386.1z
						 M239.1,374.5c4.7,4.2,10.6,6.6,16.9,6.6c6.3-0.1,12.2-2.4,16.9-6.6l-0.7-0.4l1.3-0.2c0.5-0.5,1-1,1.5-1.6c0.7-0.8,2.1-1,3-0.4
						c0.7,0.4,1.4,0.8,2.2,1.1l0.8-0.1l-0.3,0.3c4.3,1.7,9.1,1.4,13.1-0.9c4.3-2.5,7.2-7,7.6-11.9c0.4-5.2-1.7-10-5.8-13.2
						c-3.4-2.6-7.6-3.8-11.7-3.2l0.3,0.6l-1.1-0.4c-0.7,0.1-1.5,0.3-2.2,0.6c-1,0.4-2.3-0.1-2.9-1.1c-0.4-0.7-0.8-1.4-1.3-2
						l-0.8-0.3l0.5-0.2c-4.8-6.7-12.5-10.8-20.6-10.8c0,0,0,0,0,0c-8.1,0-15.7,4.1-20.6,10.8l0.5,0.2l-0.8,0.3
						c-0.4,0.7-0.9,1.3-1.3,2c-0.6,1-1.8,1.5-2.9,1.1c-0.7-0.2-1.5-0.4-2.2-0.6l-1.1,0.5l0.3-0.6c-4.1-0.6-8.3,0.6-11.7,3.2
						c-4.1,3.2-6.2,8-5.8,13.2c0.4,4.9,3.4,9.4,7.6,11.9c4,2.3,8.8,2.6,13.1,0.9l-0.3-0.3l0.8,0.1c0.7-0.3,1.5-0.7,2.2-1.1
						c1-0.6,2.3-0.4,3,0.4c0.5,0.6,1,1.1,1.5,1.6l1.2,0.2L239.1,374.5z"/>
				</g>
				<g id="XMLID_495_">
					<path id="XMLID_521_" class="st1" d="M234.8,372.4c5.3,6.4,12.8,10.4,21.2,10.5c8.4,0,15.9-4.1,21.2-10.4
						c-0.4,0.1-0.9,0.1-1.3,0.2c4.2,2.9,9,4.2,14,3.1c4.5-1,8.4-3.8,10.8-7.7c5-8.1,2.1-19.1-6.2-23.8c-4.8-2.7-10.4-2.7-15.4-0.6
						c0.4,0.2,0.8,0.3,1.2,0.5c-4.7-9.3-13.8-15.5-24.4-15.5c-10.6,0-19.7,6.3-24.4,15.5c0.4-0.2,0.8-0.3,1.2-0.5
						c-9-3.7-19.3,0-23,9.3c-3.5,8.9,1.4,19.1,10.4,22.3c5.5,1.9,11.2,0.6,15.9-2.6c1.1-0.8,0-2.7-1.1-1.9
						c-4.7,3.3-10.4,4.3-15.7,1.8c-4.7-2.3-8-7-8.4-12.2c-0.4-5.2,2-10.3,6.2-13.4c4.6-3.2,10.1-3.4,15.1-1.3c0.4,0.2,1-0.1,1.2-0.5
						c4.4-8.6,12.7-14.5,22.6-14.5c9.9,0,18.1,5.9,22.5,14.5c0.2,0.4,0.8,0.7,1.2,0.5c5-2.1,10.4-2,15,1.1c4.4,3,6.8,8.2,6.4,13.5
						c-0.4,5.1-3.6,9.8-8.2,12.1c-5.3,2.7-11.2,1.6-15.9-1.7c-0.4-0.3-1-0.2-1.3,0.2c-5,6-11.8,9.8-19.7,9.8
						c-7.9,0-14.8-3.9-19.7-9.8C235.4,369.9,233.9,371.4,234.8,372.4z"/>
					<path id="XMLID_522_" class="st1" d="M256,384.3C256,384.3,256,384.3,256,384.3c-7.9,0-15.3-3.3-20.9-9.4
						c-4.9,2.8-10.4,3.4-15.3,1.7c-4.7-1.6-8.6-5.2-10.7-9.8c-2.1-4.6-2.3-9.7-0.5-14.3c1.8-4.6,5.3-8.2,9.8-10.1
						c4.1-1.7,8.7-1.9,13-0.7c5.4-9,14.6-14.5,24.6-14.5c10,0,19.3,5.5,24.6,14.4c5.1-1.6,10.3-1.1,14.7,1.4
						c4.3,2.4,7.5,6.6,8.8,11.5c1.3,4.9,0.5,10-2.1,14.2c-2.6,4.3-6.9,7.3-11.7,8.3c-4.5,1-9.1,0.2-13.3-2.2
						C271.3,380.9,263.8,384.3,256,384.3z M235.7,369.2c0.6,0,1.2,0.3,1.7,0.9c5,6,11.6,9.3,18.6,9.3c0,0,0,0,0,0
						c6.2,0,12.1-2.6,16.8-7.3l-0.5-0.4l1.1-0.1c0.5-0.5,0.9-1,1.4-1.5c0.7-0.9,2.2-1.1,3.2-0.4c0.6,0.4,1.2,0.8,1.8,1.1l0.9-0.1
						l-0.3,0.4c4,2,8.3,2.1,12.1,0.2c4.2-2.1,7.1-6.3,7.5-11c0.4-4.8-1.8-9.5-5.8-12.2c-3.2-2.2-7-2.8-11-1.9l0.4,0.7l-1.2-0.5
						c-0.6,0.2-1.2,0.4-1.9,0.7c-1,0.4-2.4-0.1-3-1.1c-0.3-0.7-0.7-1.3-1.1-1.9l-0.7-0.3l0.4-0.2c-4.6-7.2-11.9-11.4-20-11.4
						c-8.1,0-15.4,4.2-20,11.4l0.4,0.2l-0.7,0.3c-0.4,0.6-0.7,1.3-1.1,1.9c-0.5,1-1.9,1.6-3,1.1c-0.6-0.3-1.2-0.5-1.9-0.7l-1.2,0.5
						l0.4-0.7c-4-1-7.9-0.3-11.1,2c-3.9,2.7-6,7.4-5.6,12.1c0.4,4.7,3.4,9,7.6,11.1c4.5,2.2,9.7,1.5,14.3-1.7
						C234.6,369.3,235.2,369.2,235.7,369.2z"/>
				</g>
			</g>
		</g>
	</g>
</g>
</svg>

<svg width="512" height="512" viewBox="0 0 512 512" fill="none" xmlns="http://www.w3.org/2000/svg">
<path d="M410.4 200.1C400 200.1 389.7 201.9 379.9 205.5C354.8 159.8 307.8 131.5 256 131.5C204.3 131.5 157.2 159.7 132.1 205.5C122.2 201.9 112 200.1 101.6 200.1C51.8 200.1 11.3 240.6 11.3 290.4C11.3 340.2 51.8 380.7 101.6 380.7C113.4 380.7 125 378.4 135.8 373.9V363.9C125.1 368.9 113.5 371.6 101.6 371.6C56.8 371.6 20.4 335.2 20.4 290.4C20.4 245.6 56.8 209.2 101.6 209.2C112.2 209.2 122.6 211.3 132.5 215.4L136.4 217L138.3 213.3C161.3 168.5 206.4 140.6 256 140.6C305.6 140.6 350.7 168.4 373.7 213.3L375.6 217L379.5 215.4C389.4 211.3 399.8 209.2 410.4 209.2C455.2 209.2 491.6 245.6 491.6 290.4C491.6 335.2 455.2 371.6 410.4 371.6C398.5 371.6 386.9 369 376.2 363.9V373.9C387 378.4 398.6 380.7 410.4 380.7C460.2 380.7 500.7 340.2 500.7 290.4C500.7 240.6 460.2 200.1 410.4 200.1Z" fill="#B0B5B5"/>
<path d="M410.4 194.6C399.4 194.8 388.8 196.6 378.4 200.2C380.5 201 382.5 201.9 384.6 202.7C358.6 156.2 309.6 126 256 126C202.4 126 153.4 156.2 127.4 202.7C129.5 201.9 131.5 201 133.6 200.2C85.9 183.9 32.8 207 13.2 253.7C-4.99999 297.2 12.4 348.9 53 372.9C78.6 388 109.8 390.1 137.3 379.2C139.6 378.3 141.3 376.5 141.3 373.9C141.3 370.6 141.3 367.2 141.3 363.9C141.3 359.4 136.7 357.5 133.1 359.2C81.5 382.3 22.5 341.9 26.1 285.4C27.6 260.8 41.7 238.1 62.8 225.5C85.4 211.9 111.1 212.5 135 222.3C137.1 223.2 140.2 221.7 141.2 219.8C163.6 175.9 205.8 146 256 146C306.2 146 348.4 175.8 370.9 219.7C371.9 221.6 375 223.1 377.1 222.2C401 212.3 426.7 211.8 449.3 225.4C470.4 238 484.5 260.8 486 285.3C489.5 341.8 430.5 382.2 379 359.1C375.3 357.5 370.8 359.3 370.8 363.8C370.8 367.1 370.8 370.5 370.8 373.8C370.8 376.4 372.5 378.2 374.8 379.1C418.4 396.3 469 379.4 493 339C515.4 301.1 508.4 251.2 476.5 220.9C458.5 204 435 194.9 410.4 194.6C403.4 194.5 403.3 205.5 410.4 205.5C461.7 206.2 502.7 252.6 494.2 304C485.3 358.1 427.9 388.3 377.7 368.6C379 370.4 380.4 372.1 381.7 373.9C381.7 370.6 381.7 367.2 381.7 363.9C379 365.5 376.2 367.1 373.5 368.6C417.9 388.5 470.9 369.6 490.2 324.1C507.8 282.8 489.7 233.2 449.6 213C425.5 200.8 398.8 201.4 374.1 211.6C376.2 212.4 378.2 213.3 380.3 214.1C356.1 166.9 309.9 135 256 135C202.1 135 155.9 166.9 131.7 214.1C133.8 213.3 135.8 212.4 137.9 211.6C95 194 44.7 209.3 23.8 252.3C4.10001 292.8 19.3 342.9 58.2 365.5C83 379.9 112.6 380.3 138.5 368.7C135.8 367.1 133 365.5 130.3 364C130.3 367.3 130.3 370.7 130.3 374C131.6 372.2 133 370.5 134.3 368.7C79.5 390.3 17.6 351.7 16.7 291.7C15.9 232.4 75.4 191.8 130.6 210.7C132.8 211.5 135.7 210.2 136.8 208.2C161 165 206.1 136.9 256 136.9C305.9 136.9 350.9 164.9 375.1 208.2C376.2 210.2 379 211.5 381.3 210.7C390.8 207.5 400.3 205.7 410.4 205.5C417.5 205.4 417.5 194.5 410.4 194.6Z" fill="#B0B5B5"/>
<path d="M256 383.6C248.1 383.6 240.5 380.1 235.2 374.1C232.3 375.9 229.1 376.9 225.7 376.9C215.9 376.9 208 368.9 208 359.2C208 349.4 216 341.5 225.7 341.5C227.7 341.5 229.8 341.9 231.7 342.6C236.6 333.6 245.9 328.1 256 328.1C266.2 328.1 275.4 333.6 280.3 342.6C282.2 341.9 284.2 341.5 286.3 341.5C296.1 341.5 304 349.5 304 359.2C304 369 296 376.9 286.3 376.9C282.9 376.9 279.7 375.9 276.8 374.1C271.5 380.1 263.9 383.6 256 383.6ZM235.5 371.7L236 372.3C241 378.3 248.3 381.8 255.9 381.8C263.5 381.8 270.8 378.3 275.8 372.3L276.3 371.7L277 372.2C279.7 374.1 282.9 375.1 286.2 375.1C295 375.1 302.1 367.9 302.1 359.2C302.1 350.5 294.9 343.3 286.2 343.3C284.1 343.3 282.1 343.7 280.1 344.5L279.3 344.8L278.9 344.1C274.4 335.3 265.5 329.8 255.8 329.8C246.1 329.8 237.2 335.3 232.7 344.1L232.3 344.8L231.5 344.5C229.6 343.7 227.5 343.3 225.4 343.3C216.6 343.3 209.5 350.5 209.5 359.2C209.5 367.9 216.7 375.1 225.4 375.1C228.7 375.1 231.8 374.1 234.6 372.2L235.5 371.7Z" fill="#B0B5B5"/>
<path d="M256 385C248.1 385 240.5 381.7 234.9 375.9C232.1 377.5 228.9 378.3 225.7 378.3C215.2 378.3 206.6 369.7 206.6 359.2C206.6 348.7 215.2 340.1 225.7 340.1C227.5 340.1 229.3 340.4 231.1 340.9C236.4 332.1 245.8 326.7 256.1 326.7C266.3 326.7 275.8 332.1 281.1 340.9C282.8 340.4 284.6 340.1 286.5 340.1C297 340.1 305.6 348.7 305.6 359.2C305.6 369.7 297 378.3 286.5 378.3C283.3 378.3 280.1 377.5 277.3 375.9C271.5 381.7 263.9 385 256 385ZM235.8 369.8L237.1 371.4C241.8 377.1 248.7 380.4 256 380.4C263.3 380.4 270.1 377.1 274.9 371.4L276.2 369.8L277.9 371C280.4 372.7 283.3 373.7 286.3 373.7C294.3 373.7 300.9 367.2 300.9 359.1C300.9 351 294.4 344.5 286.3 344.5C284.4 344.5 282.5 344.9 280.8 345.6L278.9 346.4L277.9 344.5C273.6 336.2 265.2 331 256 331C246.8 331 238.4 336.2 234.1 344.5L233.1 346.4L231.2 345.6C229.4 344.9 227.6 344.5 225.7 344.5C217.7 344.5 211.1 351 211.1 359.1C211.1 367.2 217.6 373.7 225.7 373.7C228.7 373.7 231.6 372.8 234.1 371L235.8 369.8Z" fill="#B0B5B5"/>
<path d="M256 382.5C248.2 382.4 241.1 379 236 373.3C235.7 373 235.1 372.9 234.7 373.1C229.4 376.3 222.9 376.7 217.5 373.5C212.8 370.8 209.6 365.9 209.2 360.5C208.1 348.4 220.2 339.5 231.5 343.4C231.9 343.6 232.5 343.3 232.7 342.9C237.4 334.4 246.3 328.9 256.1 328.9C265.9 328.9 274.7 334.4 279.5 342.9C279.7 343.3 280.3 343.5 280.7 343.4C292 339.5 304.1 348.4 303 360.5C302.5 365.9 299.3 370.8 294.7 373.5C289.3 376.6 282.7 376.3 277.5 373.1C277.1 372.9 276.5 372.9 276.2 373.3C270.9 379.1 263.8 382.4 256 382.5C254.6 382.5 254.6 384.7 256 384.6C264.3 384.5 272 380.9 277.6 374.8C277.2 374.9 276.7 374.9 276.3 375C285.2 380.5 297.2 377.8 302.5 368.7C307.5 360.2 304.9 349.1 296.9 343.6C292 340.2 285.7 339.5 280.1 341.4C280.5 341.6 280.9 341.7 281.3 341.9C276.2 332.8 266.6 326.8 256.1 326.8C245.6 326.8 236 332.7 230.9 341.9C231.3 341.7 231.7 341.6 232.1 341.4C222.4 338.1 211.6 343.1 208.1 352.8C204.7 362.1 209.5 372.7 218.6 376.4C224.3 378.8 230.7 378.1 235.9 374.9C235.5 374.8 235 374.8 234.6 374.7C240.1 380.9 247.9 384.5 256.2 384.5C257.4 384.7 257.4 382.5 256 382.5Z" fill="#B0B5B5"/>
<path d="M256 386.1C256 386.1 255.9 386.1 256 386.1C247.9 386 240.5 382.8 234.7 377.2C229.4 379.8 223.3 380.1 217.9 377.8C208.1 373.7 203.1 362.3 206.6 352.4C210.1 342.7 220.5 337.2 230.5 339.6C236.1 330.9 245.7 325.5 255.9 325.5C266.1 325.5 275.7 330.9 281.3 339.6C286.9 338.2 292.8 339.3 297.5 342.5C306.3 348.5 308.9 360.4 303.6 369.4C300.9 374 296.4 377.3 291.1 378.6C286.4 379.8 281.4 379.2 277.2 377.1C271.6 382.8 264.1 386 256 386.1C256 386.1 256.1 386.1 256 386.1ZM239.1 374.5C243.8 378.7 249.7 381.1 256 381.1C262.3 381 268.2 378.7 272.9 374.5L272.2 374.1L273.5 373.9C274 373.4 274.5 372.9 275 372.3C275.7 371.5 277.1 371.3 278 371.9C278.7 372.3 279.4 372.7 280.2 373L281 372.9L280.7 373.2C285 374.9 289.8 374.6 293.8 372.3C298.1 369.8 301 365.3 301.4 360.4C301.8 355.2 299.7 350.4 295.6 347.2C292.2 344.6 288 343.4 283.9 344L284.2 344.6L283.1 344.2C282.4 344.3 281.6 344.5 280.9 344.8C279.9 345.2 278.6 344.7 278 343.7C277.6 343 277.2 342.3 276.7 341.7L275.9 341.4L276.4 341.2C271.6 334.5 263.9 330.4 255.8 330.4C247.7 330.4 240.1 334.5 235.2 341.2L235.7 341.4L234.9 341.7C234.5 342.4 234 343 233.6 343.7C233 344.7 231.8 345.2 230.7 344.8C230 344.6 229.2 344.4 228.5 344.2L227.4 344.7L227.7 344.1C223.6 343.5 219.4 344.7 216 347.3C211.9 350.5 209.8 355.3 210.2 360.5C210.6 365.4 213.6 369.9 217.8 372.4C221.8 374.7 226.6 375 230.9 373.3L230.6 373L231.4 373.1C232.1 372.8 232.9 372.4 233.6 372C234.6 371.4 235.9 371.6 236.6 372.4C237.1 373 237.6 373.5 238.1 374L239.3 374.2L239.1 374.5Z" fill="#B0B5B5"/>
<path d="M234.8 372.4C240.1 378.8 247.6 382.8 256 382.9C264.4 382.9 271.9 378.8 277.2 372.5C276.8 372.6 276.3 372.6 275.9 372.7C280.1 375.6 284.9 376.9 289.9 375.8C294.4 374.8 298.3 372 300.7 368.1C305.7 360 302.8 349 294.5 344.3C289.7 341.6 284.1 341.6 279.1 343.7C279.5 343.9 279.9 344 280.3 344.2C275.6 334.9 266.5 328.7 255.9 328.7C245.3 328.7 236.2 335 231.5 344.2C231.9 344 232.3 343.9 232.7 343.7C223.7 340 213.4 343.7 209.7 353C206.2 361.9 211.1 372.1 220.1 375.3C225.6 377.2 231.3 375.9 236 372.7C237.1 371.9 236 370 234.9 370.8C230.2 374.1 224.5 375.1 219.2 372.6C214.5 370.3 211.2 365.6 210.8 360.4C210.4 355.2 212.8 350.1 217 347C221.6 343.8 227.1 343.6 232.1 345.7C232.5 345.9 233.1 345.6 233.3 345.2C237.7 336.6 246 330.7 255.9 330.7C265.8 330.7 274 336.6 278.4 345.2C278.6 345.6 279.2 345.9 279.6 345.7C284.6 343.6 290 343.7 294.6 346.8C299 349.8 301.4 355 301 360.3C300.6 365.4 297.4 370.1 292.8 372.4C287.5 375.1 281.6 374 276.9 370.7C276.5 370.4 275.9 370.5 275.6 370.9C270.6 376.9 263.8 380.7 255.9 380.7C248 380.7 241.1 376.8 236.2 370.9C235.4 369.9 233.9 371.4 234.8 372.4Z" fill="#B0B5B5"/>
<path d="M256 384.3C248.1 384.3 240.7 381 235.1 374.9C230.2 377.7 224.7 378.3 219.8 376.6C215.1 375 211.2 371.4 209.1 366.8C207 362.2 206.8 357.1 208.6 352.5C210.4 347.9 213.9 344.3 218.4 342.4C222.5 340.7 227.1 340.5 231.4 341.7C236.8 332.7 246 327.2 256 327.2C266 327.2 275.3 332.7 280.6 341.6C285.7 340 290.9 340.5 295.3 343C299.6 345.4 302.8 349.6 304.1 354.5C305.4 359.4 304.6 364.5 302 368.7C299.4 373 295.1 376 290.3 377C285.8 378 281.2 377.2 277 374.8C271.3 380.9 263.8 384.3 256 384.3ZM235.7 369.2C236.3 369.2 236.9 369.5 237.4 370.1C242.4 376.1 249 379.4 256 379.4C262.2 379.4 268.1 376.8 272.8 372.1L272.3 371.7L273.4 371.6C273.9 371.1 274.3 370.6 274.8 370.1C275.5 369.2 277 369 278 369.7C278.6 370.1 279.2 370.5 279.8 370.8L280.7 370.7L280.4 371.1C284.4 373.1 288.7 373.2 292.5 371.3C296.7 369.2 299.6 365 300 360.3C300.4 355.5 298.2 350.8 294.2 348.1C291 345.9 287.2 345.3 283.2 346.2L283.6 346.9L282.4 346.4C281.8 346.6 281.2 346.8 280.5 347.1C279.5 347.5 278.1 347 277.5 346C277.2 345.3 276.8 344.7 276.4 344.1L275.7 343.8L276.1 343.6C271.5 336.4 264.2 332.2 256.1 332.2C248 332.2 240.7 336.4 236.1 343.6L236.5 343.8L235.8 344.1C235.4 344.7 235.1 345.4 234.7 346C234.2 347 232.8 347.6 231.7 347.1C231.1 346.8 230.5 346.6 229.8 346.4L228.6 346.9L229 346.2C225 345.2 221.1 345.9 217.9 348.2C214 350.9 211.9 355.6 212.3 360.3C212.7 365 215.7 369.3 219.9 371.4C224.4 373.6 229.6 372.9 234.2 369.7C234.6 369.3 235.2 369.2 235.7 369.2Z" fill="#B0B5B5"/>
</svg>
